X: 76
T: No_79_Pleasure_Dance_Song_(b).krn
N: Derived from No_79_Pleasure_Dance_Song_(b).krn
%%abc-version 2.0
%%abcx-abcm2ps-target-version 5.9.1 (29 Sep 2008)
%%abc-creator hum2abc beta
%%abcx-conversion-date 2019/03/15 08:25:36
%%humdrum-veritas 521542883
%%humdrum-veritas-data 1859641496
%%linebreak <none>
%%barnumbers 0
L: 1/8
M: 2/4
K: C clef=bass
[K:clef=bass][M:2/4]A,A, (3A,^G,A, | 
E,E, D,D, | 
E,E, (3E,C,E, | 
C,C, A,, z | 
D,2(3D,^C,D, | 
C,C, A,,C, | 
A,,2A,,C, | 
C,A,,- A,,C, | 
A,,4 | 
A,,2A,, z | 
A,2(3A,^G,A, | 
E,E,D,2 | 
E,2(3E,^D,E, | 
C,C, A,, z | 
C,2(3C,A,,D, | 
[M:3/4]C,2A,,A,,-A,,2 | 
C,A,,A,,4- | 
[M:2/4]A,,2A,, z | 
E,2(3E,^D,E, | 
C,C,A,,2 | 
C,2(3(C,/A,,)D, | 
C,C, A,, z | 
C,A,,-A,,2 | 
C,A,,-A,,2 | 
C,/A,,3/A,,2- | 
A,,2A,, z | 
E,2(3E,D,E, | 
C,C,A,,2 | 
C,A,,-A,,2 | 
[M:3/4]C,A,, A,,A,,A,,2 | 
[M:2/4]A,,4 | 
C,C, A,, z |]  



